X: 6445
T: Castlemahon Lasses, The
R: reel
M: 4/4
K: Gmajor
(3DEF|:G2BG AGBd|gedB AGEF|G2BG AG (3Bcd|gedBA3B|
G2BG AGBd|gedB dega|bgag efge|1 dBAB G3B:|2 dBAB G3z||
|:g2bg agba|gedB defa|g2bg agea|gedB A2Bd|
g2bg agba|gedB dega|bgag efge|1 dBAB G3z:|2 dBAB G2(3DEF||

